symbols/web/network_check/materialsymbolsrounded/network_check_wght500grad200_24px.svg

<svg xmlns="http://www.w3.org/2000/svg" height="24" width="24"><path d="M11.125 20.575q-.875-.35-1.35-1.263Q9.3 18.4 9.65 17.45q.125-.325 1.075-2.212.95-1.888 2.125-4.176 1.175-2.287 2.275-4.412l1.5-2.9q.15-.275.375-.363.225-.087.525.013.25.125.388.337.137.213.087.513-.175.875-.725 3.225t-1.162 4.862q-.613 2.513-1.138 4.538-.525 2.025-.625 2.25-.375.975-1.337 1.388-.963.412-1.888.062Zm13.35-10.85q-.55.575-1.375.587-.825.013-1.5-.487-.65-.5-1.325-.925-.675-.425-1.325-.75l.925-4q1.25.5 2.413 1.237 1.162.738 2.162 1.588.625.5.638 1.325.012.825-.613 1.425Zm-25-.05q-.575-.575-.562-1.4.012-.825.637-1.325 2.5-2.1 5.663-3.275Q8.375 2.5 12 2.5q.6 0 1.45.037.85.038 1.45.163l-1.95 3.85q-.225 0-.487-.013-.263-.012-.463-.012-2.725 0-5.175.875-2.45.875-4.425 2.4-.65.5-1.513.462-.862-.037-1.412-.587ZM19 15.175q-.4.4-.9.5-.5.1-.9.05l.9-3.825q.2.15.413.275.212.125.412.275.65.5.663 1.3.012.8-.588 1.425Zm-14.025-.05q-.625-.6-.6-1.4.025-.8.675-1.25Q6.3 11.575 7.8 11q1.5-.575 3.25-.775l-2.425 4.75q-.2.1-.363.187-.162.088-.312.188-.75.425-1.6.375-.85-.05-1.375-.6Z"/></svg>

<svg xmlns="http://www.w3.org/2000/svg" height="24" width="24"><path d="M11.125 20.575Q10.25 20.225 9.775 19.312Q9.3 18.4 9.65 17.45Q9.775 17.125 10.725 15.238Q11.675 13.35 12.85 11.062Q14.025 8.775 15.125 6.65Q16.225 4.525 16.625 3.75Q16.775 3.475 17 3.387Q17.225 3.3 17.525 3.4Q17.775 3.525 17.913 3.737Q18.05 3.95 18 4.25Q17.825 5.125 17.275 7.475Q16.725 9.825 16.113 12.337Q15.5 14.85 14.975 16.875Q14.45 18.9 14.35 19.125Q13.975 20.1 13.013 20.513Q12.05 20.925 11.125 20.575ZM24.475 9.725Q23.925 10.3 23.1 10.312Q22.275 10.325 21.6 9.825Q20.95 9.325 20.275 8.9Q19.6 8.475 18.95 8.15L19.875 4.15Q21.125 4.65 22.288 5.387Q23.45 6.125 24.45 6.975Q25.075 7.475 25.088 8.3Q25.1 9.125 24.475 9.725ZM-0.525 9.675Q-1.1 9.1 -1.087 8.275Q-1.075 7.45 -0.45 6.95Q2.05 4.85 5.213 3.675Q8.375 2.5 12 2.5Q12.6 2.5 13.45 2.537Q14.3 2.575 14.9 2.7L12.95 6.55Q12.725 6.55 12.463 6.537Q12.2 6.525 12 6.525Q9.275 6.525 6.825 7.4Q4.375 8.275 2.4 9.8Q1.75 10.3 0.887 10.262Q0.025 10.225 -0.525 9.675ZM19 15.175Q18.6 15.575 18.1 15.675Q17.6 15.775 17.2 15.725Q17.2 15.725 17.2 15.725Q17.2 15.725 17.2 15.725L18.1 11.9Q18.3 12.05 18.513 12.175Q18.725 12.3 18.925 12.45Q19.575 12.95 19.588 13.75Q19.6 14.55 19 15.175ZM4.975 15.125Q4.35 14.525 4.375 13.725Q4.4 12.925 5.05 12.475Q6.3 11.575 7.8 11Q9.3 10.425 11.05 10.225L8.625 14.975Q8.425 15.075 8.262 15.162Q8.1 15.25 7.95 15.35Q7.2 15.775 6.35 15.725Q5.5 15.675 4.975 15.125Z"/></svg>
